X:1
T:Title
%%score { ( 1 4 ) | ( 2 3 ) }
L:1/8
Q:1/4=116
M:3/4
K:Eb
V:1 treble nm="Grand Piano"
V:4 treble 
V:2 bass 
V:3 bass 
V:1
 G3 F E2 | G3 F E2 | B6 | B6 | c2 B2 G2 | D4 E2 | A6- | A6 | A3 G F2 | A3 G F2 | c6 | c6 | %12
w: Benjamin~A.~Baur * *||||||||||||
 [Dd]2 [Dc]2 [DB]2 | [DF]4 [D_G]2 | G2 c3 [B,EG] | [DB]2 z2 z2 | G3 F E2 | G3 F E2 | B6 | B6 | %20
w: ||||||||
 e2 e2 e2 | d4 =B2 | c6- | c6 | F3 G A2 | c4 z2 | B6 | G6 | A2 B2 c2 | G4 z2 | [B,E]6- | [B,E]6 |] %32
w: ||||||||||||
V:2
 [E,B,E]3 [E,A,B,] [E,G,B,]2 | [E,B,E]3 [E,A,B,] [E,G,B,]2 | [G,B,E]6 | [F,A,D]6 | %4
 [E,G,E]2 [E,G,E]2 [E,B,E]2 | [G,B,]4 [_G,=A,C]2 | [B,D]6- | [B,D]6 | [F,CF]3 [F,B,C] [F,A,C]2 | %9
 [F,CF]3 [F,B,C] [F,A,C]2 | [F,A,F]6 | [F,,A,E]6 | [B,,A,]2 [B,,A,]2 [B,,A,]2 | %13
 [B,,A,]4 [B,,=A,]2 | B,2 z2 z2 | B,,2 C,2 D,2 | [E,B,E]3 [E,A,B,] [E,G,B,]2 | %17
 [E,B,E]3 [E,A,B,] [E,G,B,]2 | [E,G,E]6 | [F,A,D]6 | [G,B,E]2 [G,B,E]2 [G,B,E]2 | %21
 [G,=B,F]4 [G,DF]2 | [A,E]6 | z6 | [A,C]3 [G,C=E] [F,CF]2 | [A,F]4 [=A,E_G]2 | [EG]4 _D2 | [C=E]6 | %28
 [F,CF]2 [G,C=E]2 [A,CF]2 | B,4 z2 | [E,G,]6- | [E,G,]6 |] %32
V:3
 x6 | x6 | x6 | x6 | x6 | x6 | F,6 | x6 | x6 | x6 | x6 | x6 | x6 | x6 | %14
 [E,E]2- [E,G,-E-]2 [G,E]E, | x6 | x6 | x6 | x6 | x6 | x6 | x6 | C6- | [B,C]6 | x6 | C2 z2 z2 | %26
 B,6 | x6 | x6 | E2 z2 [B,,A,]2 | x6 | x6 |] %32
V:4
 x6 | x6 | x6 | x6 | x6 | x6 | x6 | B,,6 | x6 | x6 | x6 | x6 | x6 | x6 | x6 | %15
 B,2- [B,-E=A]2 [B,F_A]2 | x6 | x6 | x6 | x6 | x6 | x6 | x6 | =E6 | x6 | z2 D2 =B2 | z2 z2 F2 | %27
 x6 | x6 | z2 C2 [DF]2 | x6 | x6 |] %32

